frontend/public/carbon_ibm-cloud-direct-link-2-connect.svg

<svg width="48" height="48" viewBox="0 0 48 48" fill="none" xmlns="http://www.w3.org/2000/svg">
<path d="M25.8 19.5C26.4 21.3 28.05 22.5 30 22.5C32.55 22.5 34.5 20.55 34.5 18C34.5 15.45 32.55 13.5 30 13.5C28.05 13.5 26.4 14.7 25.8 16.5H7.5C5.85 16.5 4.5 17.85 4.5 19.5V28.5H0V31.5H4.5V40.5C4.5 42.15 5.85 43.5 7.5 43.5H28.5C30.15 43.5 31.5 42.15 31.5 40.5V34.5H28.5V40.5H7.5V19.5H25.8ZM30 16.5C30.9 16.5 31.5 17.1 31.5 18C31.5 18.9 30.9 19.5 30 19.5C29.1 19.5 28.5 18.9 28.5 18C28.5 17.1 29.1 16.5 30 16.5Z" fill="#F24E1E"/>
<path d="M43.5 16.5V7.5C43.5 5.85 42.15 4.5 40.5 4.5H19.5C17.85 4.5 16.5 5.85 16.5 7.5V13.5H19.5V7.5H40.5V28.5H22.2C21.6 26.7 19.95 25.5 18 25.5C15.45 25.5 13.5 27.45 13.5 30C13.5 32.55 15.45 34.5 18 34.5C19.95 34.5 21.6 33.3 22.2 31.5H40.5C42.15 31.5 43.5 30.15 43.5 28.5V19.5H48V16.5H43.5ZM18 31.5C17.1 31.5 16.5 30.9 16.5 30C16.5 29.1 17.1 28.5 18 28.5C18.9 28.5 19.5 29.1 19.5 30C19.5 30.9 18.9 31.5 18 31.5Z" fill="#F24E1E"/>
</svg>

<?xml version="1.0" encoding="utf-8"?>
<!-- Generator: Adobe Illustrator 28.2.0, SVG Export Plug-In . SVG Version: 6.00 Build 0)  -->
<svg width="48" height="48" version="1.1" id="Layer_1" xmlns="http://www.w3.org/2000/svg" xmlns:xlink="http://www.w3.org/1999/xlink" x="0px" y="0px"
	 viewBox="0 0 48 48" style="enable-background:new 0 0 48 48;" xml:space="preserve">
<style type="text/css">
	.st0{fill:#024DDF;}
</style>
<path class="st0" d="M25.8,19.5c0.6,1.8,2.2,3,4.2,3c2.5,0,4.5-2,4.5-4.5s-2-4.5-4.5-4.5c-2,0-3.6,1.2-4.2,3H7.5c-1.7,0-3,1.4-3,3v9
	H0v3h4.5v9c0,1.7,1.3,3,3,3h21c1.6,0,3-1.3,3-3v-6h-3v6h-21v-21H25.8z M30,16.5c0.9,0,1.5,0.6,1.5,1.5s-0.6,1.5-1.5,1.5
	s-1.5-0.6-1.5-1.5S29.1,16.5,30,16.5z"/>
<path class="st0" d="M43.5,16.5v-9c0-1.7-1.3-3-3-3h-21c-1.6,0-3,1.3-3,3v6h3v-6h21v21H22.2c-0.6-1.8-2.2-3-4.2-3
	c-2.6,0-4.5,2-4.5,4.5s1.9,4.5,4.5,4.5c2,0,3.6-1.2,4.2-3h18.3c1.7,0,3-1.4,3-3v-9H48v-3H43.5z M18,31.5c-0.9,0-1.5-0.6-1.5-1.5
	s0.6-1.5,1.5-1.5s1.5,0.6,1.5,1.5S18.9,31.5,18,31.5z"/>
</svg>
